X:1
T:Brighton Camp (The Girl I Left Behind Me)
L:1/8
M:2/4
K:G
"G" ed BA |"Em" BG E>F |"C" GG G/A/B/c/ |"D" d2 B g/f/ |
"G" ed BA |"Em" BG E>G |"C" F/G/A"D" DE/F/ |"G" G2 G B :: 
"G" de fg |"G" d B/A/ G B |"C" de fg |"D" g a/g/"C" f g/f/ | 
"Em" ed BA |"D" BG E>G |"C" F/G/A"D" DE/F/ |"G" G2 G z ::|]